icon/ir/nintendo-switch.svg

<svg viewBox="0 0 24 24" stroke-width="1.5" fill="none" xmlns="http://www.w3.org/2000/svg" height="1em" width="1em">
  <path d="M2 17V7C2 4.79086 3.79086 3 6 3H9.9C10.2314 3 10.5 3.26863 10.5 3.6V20.4C10.5 20.7314 10.2314 21 9.9 21H6C3.79086 21 2 19.2091 2 17Z" stroke="currentColor"/>
  <path d="M6.5 8C7.05228 8 7.5 7.55228 7.5 7C7.5 6.44772 7.05228 6 6.5 6C5.94772 6 5.5 6.44772 5.5 7C5.5 7.55228 5.94772 8 6.5 8Z" fill="currentColor" stroke="currentColor" stroke-linecap="round" stroke-linejoin="round"/>
  <path d="M17.5 14C18.0523 14 18.5 13.5523 18.5 13C18.5 12.4477 18.0523 12 17.5 12C16.9477 12 16.5 12.4477 16.5 13C16.5 13.5523 16.9477 14 17.5 14Z" fill="currentColor" stroke="currentColor" stroke-linecap="round" stroke-linejoin="round"/>
  <path d="M22 17V7C22 4.79086 20.2091 3 18 3H14.1C13.7686 3 13.5 3.26863 13.5 3.6V20.4C13.5 20.7314 13.7686 21 14.1 21H18C20.2091 21 22 19.2091 22 17Z" stroke="currentColor"/>
</svg>

<svg width="24" height="24" stroke-width="1.5" fill="none" xmlns="http://www.w3.org/2000/svg"><path d="M2 17V7a4 4 0 0 1 4-4h3.9a.6.6 0 0 1 .6.6v16.8a.6.6 0 0 1-.6.6H6a4 4 0 0 1-4-4Z" stroke="currentColor"/><path d="M6.5 8a1 1 0 1 0 0-2 1 1 0 0 0 0 2ZM17.5 14a1 1 0 1 0 0-2 1 1 0 0 0 0 2Z" fill="currentColor" stroke="currentColor" stroke-linecap="round" stroke-linejoin="round"/><path d="M22 17V7a4 4 0 0 0-4-4h-3.9a.6.6 0 0 0-.6.6v16.8a.6.6 0 0 0 .6.6H18a4 4 0 0 0 4-4Z" stroke="currentColor"/></svg>
